icons/Suru/scalable/places/user-desktop-symbolic.svg

<svg height="16" width="16" xmlns="http://www.w3.org/2000/svg">
    <path d="M3.994 2c-1.258.015-2.179-.03-2.931.385-.377.207-.676.56-.84.998C.058 3.82 0 4.343 0 5v7c0 .658.058 1.179.223 1.617.164.439.463.79.84.998.752.416 1.673.37 2.931.385H12.006c1.258-.015 2.179.03 2.932-.385a1.88 1.88 0 0 0 .838-.998c.164-.438.224-.96.224-1.617V5c0-.658-.06-1.179-.225-1.617a1.88 1.88 0 0 0-.838-.998c-.752-.416-1.673-.37-2.931-.385h-8.01zM4 3h8c1.26.015 2.087.058 2.453.26.184.1.29.214.387.474.097.26.16.674.16 1.266v7c0 .592-.063 1.006-.16 1.266-.098.26-.203.373-.387.474-.366.202-1.193.245-2.453.26H4zM1.834 3h.332C2.833 3 3 3.2 3 4s-.167 1-.834 1h-.332C1.167 5 1 4.8 1 4s.167-1 .834-1zm0 3h.332C2.833 6 3 6.2 3 7s-.167 1-.834 1h-.332C1.167 8 1 7.8 1 7s.167-1 .834-1zm0 3h.332C2.833 9 3 9.2 3 10s-.167 1-.834 1h-.332C1.167 11 1 10.8 1 10s.167-1 .834-1zm0 3h.332c.667 0 .834.2.834 1s-.167 1-.834 1h-.332C1.167 14 1 13.8 1 13s.167-1 .834-1z" style="line-height:normal;text-indent:0;text-align:start;text-decoration-line:none;text-decoration-style:solid;text-decoration-color:#000;text-transform:none;isolation:auto;mix-blend-mode:normal;marker:none" color="#000" font-weight="400" font-family="sans-serif" white-space="normal" overflow="visible" fill="gray"/>
</svg>

<?xml version="1.0" encoding="UTF-8" standalone="no"?>
<svg
   xmlns:dc="http://purl.org/dc/elements/1.1/"
   xmlns:cc="http://creativecommons.org/ns#"
   xmlns:rdf="http://www.w3.org/1999/02/22-rdf-syntax-ns#"
   xmlns:svg="http://www.w3.org/2000/svg"
   xmlns="http://www.w3.org/2000/svg"
   xmlns:sodipodi="http://sodipodi.sourceforge.net/DTD/sodipodi-0.dtd"
   xmlns:inkscape="http://www.inkscape.org/namespaces/inkscape"
   height="16"
   width="16"
   version="1.1"
   id="svg9374"
   sodipodi:docname="user-desktop-symbolic.svg"
   inkscape:version="0.92.3 (2405546, 2018-03-11)">
  <metadata
     id="metadata9380">
    <rdf:RDF>
      <cc:Work
         rdf:about="">
        <dc:format>image/svg+xml</dc:format>
        <dc:type
           rdf:resource="http://purl.org/dc/dcmitype/StillImage" />
        <dc:title></dc:title>
      </cc:Work>
    </rdf:RDF>
  </metadata>
  <defs
     id="defs9378" />
  <sodipodi:namedview
     pagecolor="#ffffff"
     bordercolor="#666666"
     borderopacity="1"
     objecttolerance="10"
     gridtolerance="10"
     guidetolerance="10"
     inkscape:pageopacity="0"
     inkscape:pageshadow="2"
     inkscape:window-width="773"
     inkscape:window-height="480"
     id="namedview9376"
     showgrid="false"
     inkscape:zoom="3.6875"
     inkscape:cx="8"
     inkscape:cy="8"
     inkscape:window-x="67"
     inkscape:window-y="27"
     inkscape:window-maximized="0"
     inkscape:current-layer="svg9374" />
  <path
     d="M 3.994,2 C 2.736,2.015 1.815,1.97 1.063,2.385 0.686,2.592 0.387,2.945 0.223,3.383 0.058,3.82 0,4.343 0,5 v 7 c 0,0.658 0.058,1.179 0.223,1.617 0.164,0.439 0.463,0.79 0.84,0.998 0.752,0.416 1.673,0.37 2.931,0.385 h 8.012 c 1.258,-0.015 2.179,0.03 2.932,-0.385 0.389385,-0.222117 0.686586,-0.576063 0.838,-0.998 C 15.94,13.179 16,12.657 16,12 V 5 C 16,4.342 15.94,3.821 15.775,3.383 15.623586,2.9610631 15.326385,2.6071175 14.937,2.385 14.185,1.969 13.264,2.015 12.006,2 H 3.996 Z M 4,3 h 8 c 1.26,0.015 2.087,0.058 2.453,0.26 0.184,0.1 0.29,0.214 0.387,0.474 C 14.937,3.994 15,4.408 15,5 v 7 c 0,0.592 -0.063,1.006 -0.16,1.266 -0.098,0.26 -0.203,0.373 -0.387,0.474 C 14.087,13.942 13.26,13.985 12,14 H 4 Z"
     style="color:#000000;font-weight:400;line-height:normal;font-family:sans-serif;text-indent:0;text-align:start;text-decoration:none;text-decoration-line:none;text-decoration-style:solid;text-decoration-color:#000000;text-transform:none;white-space:normal;overflow:visible;isolation:auto;mix-blend-mode:normal;fill:#808080;marker:none"
     font-weight="400"
     overflow="visible"
     id="path9372"
     inkscape:connector-curvature="0"
     sodipodi:nodetypes="cccssccccccssccccccccsssccccc" />
</svg>
